X: 678
P: Round for as many as will
M: 6/4
L: 1/4
K: Gmix
[|\
dgf ecf | d>c B/A/ BG2 ][ B2c d2B | e2d cdB | A2G ^F>E^F | G3- G3 |]
d2c B>AG | de^f g3 | d2c B>AG | de^f g3 | d2c B>cd | e2d c>dB | A2G ^F>E^F | G3- G2 |]

